assets/images/payments/payza.svg

<svg width="100" height="60" viewBox="0 0 100 60" version="1.1" xmlns="http://www.w3.org/2000/svg" xmlns:xlink="http://www.w3.org/1999/xlink"><title>Payza-light</title><desc>Created with Sketch.</desc><defs><rect id="path-1" x="0" y="0" width="100" height="60" rx="4"/></defs><g id="Light-Payment-badges" stroke="none" stroke-width="1" fill="none" fill-rule="evenodd" transform="translate(-770.000000, -1189.000000)"><g id="Payza-light" transform="translate(770.000000, 1189.000000)"><g id="Rectangle"><use fill="#FFF" fill-rule="evenodd" xlink:href="#path-1"/><rect stroke="#FFF" stroke-width="1" x=".5" y=".5" width="99" height="59" rx="4"/></g><path d="M22.0730653,23.5189744 C21.0327338,23.7138462 20.0581481,24.4330769 19.7719603,25.4766667 C19.5373378,26.3676923 19.5889032,27.3548718 19.9550174,28.2023077 C20.3520708,29.0907692 21.3472826,29.5048718 22.2690137,29.5869231 C23.8984796,29.7433333 25.6362329,29.4510256 26.998848,28.5074359 C27.7581481,27.9830769 28.3756435,27.0920513 28.2196583,26.1330769 C28.0701187,25.0664103 27.1548332,24.2946154 26.2008737,23.9061538 C24.9027154,23.384359 23.4447043,23.2753846 22.0730653,23.5189744 L22.0730653,23.5189744 Z M19.5515183,20.7253846 C21.7791426,19.9061538 24.2749069,19.8138462 26.5631205,20.4433333 C28.3459935,20.9523077 30.0515183,21.9651282 31.1008737,23.5189744 C31.9233415,24.7189744 32.2224207,26.2753846 31.8137651,27.6779487 C31.3857725,29.2176923 30.2294189,30.4638462 28.8822734,31.2830769 C26.5824575,32.6715385 23.7270248,33.0035897 21.1229732,32.4202564 C20.9218682,32.3830769 20.7194741,32.3535897 20.5157909,32.334359 C20.4539124,33.5471795 21.1100818,34.7408974 22.1465459,35.3728205 C22.6377062,35.7215385 23.2603581,35.7958974 23.7592531,36.129359 C23.2075036,36.285641 22.6325496,36.1894872 22.0782218,36.1048718 C20.1483876,35.7625641 18.4145017,34.6178205 17.2220524,33.0869231 C15.424999,30.8125641 14.7688295,27.7215385 15.3979272,24.9061538 C15.9651463,22.9266667 17.6474667,21.4241026 19.5515183,20.7253846 L19.5515183,20.7253846 Z" id="Fill-1" fill="#419945"/><path d="M41.5518866,25.5869231 C41.5518866,26.9484615 41.5493084,28.3112821 41.5544649,29.6741026 C42.1152384,29.7074359 42.7430469,29.7458974 43.2174483,29.3894872 C43.75115,28.9984615 43.8813526,28.2920513 43.8916656,27.6741026 C43.8981113,27.0369231 43.8310763,26.3023077 43.3154225,25.8561538 C42.8242623,25.4548718 42.1423102,25.4869231 41.5518866,25.5869231 L41.5518866,25.5869231 Z M38.0235257,24.235641 C39.5640413,23.6241026 41.24894,23.4330769 42.897743,23.5292308 C43.9110027,23.6035897 44.9474667,23.8420513 45.7892715,24.4317949 C47.8634888,25.8510256 47.8428627,29.3741026 45.7699345,30.785641 C44.5491242,31.6241026 42.9970063,31.7933333 41.5505975,31.7062821 C41.5531758,33.1779487 41.5505975,34.6498718 41.5518866,36.1215385 L38.0222365,36.1215385 C38.0222365,32.1587179 38.0222365,28.1971795 38.0235257,24.235641 L38.0235257,24.235641 Z" id="Fill-3" fill="#2D2E2C"/><path d="M57.5616472,26.41 C58.8095294,26.4087179 60.0574115,26.4087179 61.3052936,26.41 C61.7100818,28.6984615 62.3017946,30.9588462 62.5480192,33.2728205 C62.6563065,32.1126923 62.9721445,30.9894872 63.2261039,29.8561538 C63.4942439,28.7074359 63.7585165,27.5574359 64.0253673,26.4087179 C65.1456251,26.41 66.265883,26.4074359 67.3861408,26.41 C65.8701187,30.9407692 64.3437835,35.4676923 62.8264723,39.9984615 C61.6198424,40.0010256 60.4132126,39.9997436 59.2078719,39.9984615 C59.7531758,38.7048718 60.2971905,37.4114103 60.8463618,36.1191026 C59.7570432,32.8805128 58.6548332,29.6471795 57.5616472,26.41" id="Fill-4" fill="#2D2E2C"/><path d="M68.2202108,26.4087179 C70.5226049,26.4125641 72.8237098,26.4010256 75.1261039,26.4151282 C74.2211316,28.7587179 73.3419419,31.1112821 72.4459935,33.4588462 C72.384115,33.6074359 72.3286822,33.7587179 72.2745386,33.9112821 C73.2336546,33.9061538 74.1914815,33.91 75.1505975,33.9087179 C75.1505975,34.6458974 75.1493084,35.3830769 75.1505975,36.1215385 L67.905662,36.1215385 C68.8866933,33.6215385 69.8651463,31.1215385 70.8448885,28.6215385 C69.9695662,28.6202564 69.095533,28.6215385 68.2214999,28.6215385 C68.2202108,27.884359 68.2202108,27.1458974 68.2202108,26.4087179" id="Fill-6" fill="#2D2E2C"/><path d="M51.4163434,32.3010256 C51.1701187,32.8689744 51.1842992,33.6394872 51.6561224,34.0907692 C52.1614631,34.5176923 52.8820892,34.4702564 53.4918498,34.3420513 C53.4931389,33.3317949 53.4918498,32.3202564 53.4918498,31.3087179 C52.736417,31.4189744 51.8121076,31.5574359 51.4163434,32.3010256 L51.4163434,32.3010256 Z M48.5944281,26.9497436 C50.1839308,26.3676923 51.9049253,26.0420513 53.598848,26.2484615 C54.538627,26.3625641 55.5093452,26.7382051 56.0804318,27.5241026 C56.6038203,28.2292308 56.7494925,29.1305128 56.7482034,29.9882051 C56.7469143,31.8625641 56.7482034,33.7382051 56.7469143,35.6125641 C55.4010579,36.2061538 53.9069511,36.3434615 52.4515183,36.3394872 C51.3222365,36.3125641 50.1246307,36.185641 49.1668038,35.5369231 C47.6842992,34.5433333 47.6224207,32.0446154 49.0907448,31.0074359 C50.3656988,30.0958974 51.9874299,29.9164103 53.5047411,29.7484615 C53.5524391,29.2279487 53.4106343,28.5869231 52.8202108,28.4510256 C51.643231,28.1638462 50.415975,28.5241026 49.3189216,28.9548718 C49.0791426,28.285641 48.823894,27.6228205 48.5944281,26.9497436 L48.5944281,26.9497436 Z" id="Fill-7" fill="#2D2E2C"/><path d="M79.7347596,32.1279487 C79.3673563,32.684359 79.3634888,33.5189744 79.8108185,34.034359 C80.3071353,34.5202564 81.0728811,34.4741026 81.704557,34.3446154 C81.7110027,33.3317949 81.7097135,32.3202564 81.704557,31.3074359 C81.0058461,31.4178205 80.1911132,31.5228205 79.7347596,32.1279487 L79.7347596,32.1279487 Z M76.804557,26.9523077 C78.4030837,26.3625641 80.1382586,26.0394872 81.8412052,26.2523077 C82.778406,26.3689744 83.7439677,26.7535897 84.3073194,27.5407692 C84.8203949,28.2433333 84.9583323,29.135641 84.9634888,29.984359 C84.964778,31.86 84.9634888,33.735641 84.9634888,35.6114103 C83.5815367,36.2189744 82.0448885,36.3537179 80.5494925,36.3369231 C79.4653305,36.3023077 78.31929,36.1665385 77.3975588,35.5497436 C75.8892715,34.5574359 75.8312605,32.0202564 77.3292347,30.9894872 C78.6028995,30.0946154 80.2117393,29.9112821 81.7226049,29.7497436 C81.7612789,29.2394872 81.6323655,28.5997436 81.052255,28.4574359 C79.8701187,28.1561538 78.6351279,28.5253846 77.5316288,28.9548718 C77.2905607,28.2869231 77.0391795,27.6228205 76.804557,26.9523077 L76.804557,26.9523077 Z" id="Fill-8" fill="#2D2E2C"/></g></g></svg>

<svg width="100" height="60" xmlns="http://www.w3.org/2000/svg" xmlns:xlink="http://www.w3.org/1999/xlink"><defs><rect id="a" x="0" y="0" width="100" height="60" rx="4"/></defs><g fill="none" fill-rule="evenodd"><use fill="#FFF" xlink:href="#a"/><rect stroke="#FFF" x=".5" y=".5" width="99" height="59" rx="4"/><path d="M22.073 23.519c-1.04.195-2.015.914-2.301 1.958-.235.89-.183 1.878.183 2.725.397.889 1.392 1.303 2.314 1.385 1.63.156 3.367-.136 4.73-1.08.76-.524 1.377-1.415 1.22-2.374-.149-1.067-1.064-1.838-2.018-2.227-1.298-.522-2.756-.63-4.128-.387zm-2.521-2.794a11.592 11.592 0 017.011-.282c1.783.51 3.489 1.522 4.538 3.076.822 1.2 1.121 2.756.713 4.159-.428 1.54-1.585 2.786-2.932 3.605-2.3 1.389-5.155 1.72-7.759 1.137a6.916 6.916 0 00-.607-.086c-.062 1.213.594 2.407 1.63 3.039.492.349 1.114.423 1.613.756-.551.157-1.126.06-1.68-.024-1.93-.342-3.664-1.487-4.857-3.018-1.797-2.274-2.453-5.365-1.824-8.18.567-1.98 2.25-3.483 4.154-4.182z" fill="#419945"/><path d="M41.552 25.587c0 1.361-.003 2.724.002 4.087.561.033 1.189.072 1.663-.285.534-.39.664-1.097.675-1.715.006-.637-.06-1.372-.577-1.818-.49-.401-1.173-.37-1.763-.27zm-3.528-1.351c1.54-.612 3.225-.803 4.874-.707 1.013.075 2.05.313 2.891.903 2.074 1.419 2.054 4.942-.02 6.354-1.22.838-2.772 1.007-4.218.92.002 1.472 0 2.944 0 4.416h-3.529c0-3.963 0-7.925.002-11.886zm19.538 2.174h3.743c.405 2.288.997 4.549 1.243 6.863.108-1.16.424-2.284.678-3.417.268-1.149.533-2.299.8-3.447 1.12.001 2.24-.002 3.36.001-1.516 4.53-3.042 9.058-4.56 13.588-1.206.003-2.413.002-3.618 0 .545-1.293 1.09-2.587 1.638-3.879-1.089-3.238-2.191-6.472-3.284-9.709m10.658-.001c2.303.004 4.604-.008 6.906.006-.905 2.344-1.784 4.696-2.68 7.044a8.75 8.75 0 00-.171.452c.959-.005 1.916-.001 2.876-.002 0 .737-.002 1.474 0 2.213h-7.245l2.939-7.5c-.875-.002-1.75 0-2.624 0v-2.213m-16.805 5.892c-.246.568-.232 1.338.24 1.79.505.427 1.226.38 1.836.251.001-1.01 0-2.022 0-3.033-.756.11-1.68.248-2.076.992zm-2.822-5.351c1.59-.582 3.31-.908 5.005-.702.94.115 1.91.49 2.481 1.276.524.705.67 1.607.668 2.464l-.001 5.625c-1.346.593-2.84.73-4.295.726-1.13-.026-2.327-.153-3.285-.802-1.483-.994-1.545-3.492-.076-4.53 1.275-.911 2.896-1.09 4.414-1.259.047-.52-.094-1.161-.685-1.297-1.177-.287-2.404.073-3.501.504-.24-.67-.495-1.332-.725-2.005zm31.141 5.178c-.368.556-.372 1.391.076 1.906.496.486 1.262.44 1.894.31.006-1.012.005-2.024 0-3.037-.7.11-1.514.216-1.97.82zm-2.93-5.176c1.598-.59 3.333-.913 5.036-.7.937.117 1.903.502 2.466 1.289.513.702.651 1.595.656 2.443.002 1.876 0 3.752 0 5.627-1.381.608-2.918.743-4.414.726-1.084-.035-2.23-.17-3.151-.787-1.509-.993-1.567-3.53-.069-4.56 1.274-.895 2.883-1.079 4.394-1.24.038-.51-.09-1.15-.67-1.293-1.183-.3-2.418.068-3.521.498-.241-.668-.493-1.332-.727-2.003z" fill="#2D2E2C"/></g></svg>
